X: 1
T: Leona Beaton Jig
C: Joseph Beaton
R: jig
Z: 2006 John Chambers <jc:trillian.mit.edu>
S: from an arrangement by Terry Traub
M: 6/8
L: 1/8
K: Ador
B \
| "Am"ABA c2d | e3 "D7"A2c | "G"B3 G2B | GBc dBG \
| "Am"ABA c2d | e3  A2f/g/ | "G"a2f g2f | "A"e^cA A2 :|
K: Amix
|: f/g/ \
| "A"a3 A2B | Ace agf | "G"g3 G2A | GBd gfg \
| "A"a3 A2B | Ace agf | "G"gfe deg | edB "A"A2 :|
